humanity-icon-theme/Humanity/status/48/aptdaemon-setup.svg

<?xml version="1.0" encoding="UTF-8" standalone="no"?>
<!-- Created with Inkscape (http://www.inkscape.org/) -->
<svg
   xmlns:svg="http://www.w3.org/2000/svg"
   xmlns="http://www.w3.org/2000/svg"
   xmlns:xlink="http://www.w3.org/1999/xlink"
   version="1.0"
   width="48"
   height="48"
   id="svg2547">
  <defs
     id="defs2549">
    <linearGradient
       id="linearGradient3275">
      <stop
         id="stop3277"
         style="stop-color:#ffffff;stop-opacity:0"
         offset="0" />
      <stop
         id="stop3283"
         style="stop-color:#ffffff;stop-opacity:1"
         offset="0.245" />
      <stop
         id="stop3285"
         style="stop-color:#ffffff;stop-opacity:1"
         offset="0.77350003" />
      <stop
         id="stop3279"
         style="stop-color:#ffffff;stop-opacity:0"
         offset="1" />
    </linearGradient>
    <linearGradient
       x1="44.994774"
       y1="17.5"
       x2="3.0052247"
       y2="17.5"
       id="linearGradient2815"
       xlink:href="#linearGradient3275"
       gradientUnits="userSpaceOnUse"
       spreadMethod="reflect" />
    <linearGradient
       id="linearGradient3827">
      <stop
         id="stop3829"
         style="stop-color:#ffffff;stop-opacity:1"
         offset="0" />
      <stop
         id="stop4295"
         style="stop-color:#ffffff;stop-opacity:1"
         offset="0.3021296" />
      <stop
         id="stop4293"
         style="stop-color:#ffffff;stop-opacity:0.6901961"
         offset="0.34361121" />
      <stop
         id="stop3832"
         style="stop-color:#ffffff;stop-opacity:0"
         offset="1" />
    </linearGradient>
    <linearGradient
       x1="26"
       y1="22"
       x2="26"
       y2="8"
       id="linearGradient2813"
       xlink:href="#linearGradient3827"
       gradientUnits="userSpaceOnUse" />
    <linearGradient
       id="linearGradient4559">
      <stop
         id="stop4561"
         style="stop-color:#ffffff;stop-opacity:0"
         offset="0" />
      <stop
         id="stop4563"
         style="stop-color:#ffffff;stop-opacity:0"
         offset="1" />
    </linearGradient>
    <linearGradient
       x1="23.451576"
       y1="30.554907"
       x2="43.00663"
       y2="45.934479"
       id="linearGradient2811"
       xlink:href="#linearGradient4559"
       gradientUnits="userSpaceOnUse"
       gradientTransform="matrix(1.2822251,0,0,1.1746872,-6.0701918,-5.3031677)" />
    <linearGradient
       id="linearGradient3295">
      <stop
         id="stop3297"
         style="stop-color:#c9af8b;stop-opacity:1"
         offset="0" />
      <stop
         id="stop3299"
         style="stop-color:#ad8757;stop-opacity:1"
         offset="0.23942046" />
      <stop
         id="stop3301"
         style="stop-color:#c2a57f;stop-opacity:1"
         offset="0.27582464" />
      <stop
         id="stop3303"
         style="stop-color:#9d7d53;stop-opacity:1"
         offset="1" />
    </linearGradient>
    <linearGradient
       x1="15.464298"
       y1="7.9756851"
       x2="15.464298"
       y2="45.04248"
       id="linearGradient2809"
       xlink:href="#linearGradient3295"
       gradientUnits="userSpaceOnUse" />
    <linearGradient
       id="linearGradient3199">
      <stop
         id="stop3201"
         style="stop-color:#dac197;stop-opacity:1"
         offset="0" />
      <stop
         id="stop3203"
         style="stop-color:#c1a581;stop-opacity:1"
         offset="0.23942046" />
      <stop
         id="stop3205"
         style="stop-color:#dbc298;stop-opacity:1"
         offset="0.27582464" />
      <stop
         id="stop3207"
         style="stop-color:#a68b60;stop-opacity:1"
         offset="1" />
    </linearGradient>
    <linearGradient
       x1="24.822832"
       y1="15.377745"
       x2="24.996943"
       y2="37.27668"
       id="linearGradient2807"
       xlink:href="#linearGradient3199"
       gradientUnits="userSpaceOnUse"
       gradientTransform="matrix(1.2822251,0,0,1.5572619,-6.0701918,-15.290756)" />
    <radialGradient
       cx="5"
       cy="41.5"
       r="5"
       fx="5"
       fy="41.5"
       id="radialGradient2805"
       xlink:href="#linearGradient3681"
       gradientUnits="userSpaceOnUse"
       gradientTransform="matrix(0.5938225,0,0,1.5366531,41.140892,-103.93618)" />
    <linearGradient
       id="linearGradient3703">
      <stop
         id="stop3705"
         style="stop-color:#000000;stop-opacity:0"
         offset="0" />
      <stop
         id="stop3711"
         style="stop-color:#000000;stop-opacity:1"
         offset="0.5" />
      <stop
         id="stop3707"
         style="stop-color:#000000;stop-opacity:0"
         offset="1" />
    </linearGradient>
    <linearGradient
       x1="17.554192"
       y1="46.000275"
       x2="17.554192"
       y2="34.999718"
       id="linearGradient2803"
       xlink:href="#linearGradient3703"
       gradientUnits="userSpaceOnUse"
       gradientTransform="matrix(1.7570316,0,0,1.3969574,-17.394014,-16.411698)" />
    <linearGradient
       id="linearGradient3681">
      <stop
         id="stop3683"
         style="stop-color:#000000;stop-opacity:1"
         offset="0" />
      <stop
         id="stop3685"
         style="stop-color:#000000;stop-opacity:0"
         offset="1" />
    </linearGradient>
    <radialGradient
       cx="5"
       cy="41.5"
       r="5"
       fx="5"
       fy="41.5"
       id="radialGradient2801"
       xlink:href="#linearGradient3681"
       gradientUnits="userSpaceOnUse"
       gradientTransform="matrix(0.5938225,0,0,1.5366531,-6.6594735,-103.93618)" />
    <linearGradient
       id="linearGradient5128">
      <stop
         id="stop5130"
         style="stop-color:#ffffff;stop-opacity:1"
         offset="0" />
      <stop
         id="stop5132"
         style="stop-color:#959595;stop-opacity:1"
         offset="1" />
    </linearGradient>
    <linearGradient
       x1="86.132919"
       y1="105.105"
       x2="84.63858"
       y2="20.895"
       id="linearGradient2521"
       xlink:href="#linearGradient5128"
       gradientUnits="userSpaceOnUse"
       gradientTransform="matrix(0.2014014,0,0,0.2014015,-48.937888,10.408091)" />
    <linearGradient
       id="linearGradient3397">
      <stop
         id="stop3399"
         style="stop-color:#aaaaaa;stop-opacity:1"
         offset="0" />
      <stop
         id="stop3401"
         style="stop-color:#8c8c8c;stop-opacity:1"
         offset="1" />
    </linearGradient>
    <linearGradient
       x1="25.922546"
       y1="19"
       x2="25.922546"
       y2="47.044857"
       id="linearGradient2519"
       xlink:href="#linearGradient3397"
       gradientUnits="userSpaceOnUse"
       gradientTransform="translate(-67.048193,-9.9036144)" />
    <linearGradient
       x1="63.9995"
       y1="3.1001"
       x2="63.9995"
       y2="122.8994"
       id="linearGradient3309"
       gradientUnits="userSpaceOnUse">
      <stop
         id="stop3311"
         style="stop-color:#f6f6f6;stop-opacity:1"
         offset="0" />
      <stop
         id="stop3313"
         style="stop-color:#d2d2d2;stop-opacity:1"
         offset="1" />
    </linearGradient>
    <linearGradient
       x1="32.036148"
       y1="19"
       x2="32.036148"
       y2="47.012184"
       id="linearGradient2517"
       xlink:href="#linearGradient3309"
       gradientUnits="userSpaceOnUse"
       gradientTransform="translate(-67.048193,-9.9036144)" />
  </defs>
  <g
     id="layer1">
    <g
       transform="translate(6.1178597e-7,-0.9999989)"
       id="g2791">
      <g
         transform="matrix(0.9926623,0,0,0.9761474,0.2751901,1.2929634)"
         id="g3305"
         style="opacity:0.4;display:inline">
        <rect
           width="2.9601951"
           height="15.366531"
           x="-3.6903627"
           y="-47.848343"
           transform="scale(-1,-1)"
           id="rect2484"
           style="opacity:1;fill:url(#radialGradient2801);fill-opacity:1;stroke:none;stroke-width:1;stroke-linecap:round;stroke-linejoin:miter;stroke-miterlimit:4;stroke-dasharray:none;stroke-dashoffset:1.20000057;stroke-opacity:1" />
        <rect
           width="40.41172"
           height="15.366531"
           x="3.6903627"
           y="32.481812"
           id="rect2486"
           style="opacity:1;fill:url(#linearGradient2803);fill-opacity:1;stroke:none;stroke-width:1;stroke-linecap:round;stroke-linejoin:miter;stroke-miterlimit:4;stroke-dasharray:none;stroke-dashoffset:1.20000057;stroke-opacity:1" />
        <rect
           width="2.9601951"
           height="15.366531"
           x="44.110001"
           y="-47.848343"
           transform="scale(1,-1)"
           id="rect3444"
           style="opacity:1;fill:url(#radialGradient2805);fill-opacity:1;stroke:none;stroke-width:1;stroke-linecap:round;stroke-linejoin:miter;stroke-miterlimit:4;stroke-dasharray:none;stroke-dashoffset:1.20000057;stroke-opacity:1;display:inline" />
      </g>
      <path
         d="M 9.010725,8.5 L 38.508448,8.5 C 40.230433,8.5 41.00537,8.2134495 41.5,9.5 L 44.501734,17.5 L 44.501734,43.173912 C 44.501734,44.727216 44.604664,44.489888 42.882671,44.489888 L 5.1173288,44.489888 C 3.3953364,44.489888 3.4982653,44.727216 3.4982653,43.173912 L 3.4982653,17.5 L 6.5,9.5 C 6.9808316,8.2394378 7.2887325,8.5 9.010725,8.5 z"
         id="path2488"
         style="fill:url(#linearGradient2807);fill-opacity:1;fill-rule:nonzero;stroke:url(#linearGradient2809);stroke-width:0.99420077;stroke-linecap:round;stroke-linejoin:miter;marker:none;marker-start:none;marker-mid:none;marker-end:none;stroke-miterlimit:4;stroke-dasharray:none;stroke-dashoffset:0;stroke-opacity:1;visibility:visible;display:block;overflow:visible" />
      <path
         d="M 9.948194,9.5129459 L 37.601066,9.5129459 C 39.215359,9.5129459 40.214446,10.069482 40.890587,11.598974 L 43.219527,18.018695 L 43.219527,41.163252 C 43.219527,42.623928 42.400768,43.359337 40.786471,43.359337 L 7.0532679,43.359337 C 5.4389745,43.359337 4.7804918,42.55051 4.7804918,41.089833 L 4.7804918,18.018695 L 7.0343027,11.461335 C 7.4850649,10.275943 8.3338968,9.5129459 9.948194,9.5129459 z"
         id="path2490"
         style="opacity:0.50549454;fill:none;fill-opacity:1;fill-rule:nonzero;stroke:url(#linearGradient2811);stroke-width:0.74211526;stroke-linecap:butt;stroke-linejoin:miter;marker:none;marker-start:none;marker-mid:none;marker-end:none;stroke-miterlimit:4;stroke-dasharray:none;stroke-dashoffset:0;stroke-opacity:1;visibility:visible;display:block;overflow:visible" />
      <path
         d="M 22,8 C 23.333333,8 24.666667,8 26,8 C 26,12.666667 26,17.333333 26,22 C 25.606271,22 25.212542,22 24.818813,22 C 24.415688,22 24.012563,22 23.609438,22 C 23.284909,22 22.960381,22 22.635853,22 C 22.423902,22 22.211951,22 22,22 C 22,17.333333 22,12.666667 22,8 z"
         id="rect3326"
         style="opacity:0.4;fill:url(#linearGradient2813);fill-opacity:1;fill-rule:nonzero;stroke:none;stroke-width:1;stroke-linecap:square;stroke-linejoin:round;marker:none;marker-start:none;marker-mid:none;marker-end:none;stroke-miterlimit:4;stroke-dasharray:none;stroke-dashoffset:0;stroke-opacity:1;visibility:visible;display:inline;overflow:visible;enable-background:accumulate" />
      <path
         d="M 3.5052248,17.5 L 44.494775,17.5"
         id="path3273"
         style="opacity:0.4;fill:none;fill-rule:evenodd;stroke:url(#linearGradient2815);stroke-width:1px;stroke-linecap:square;stroke-linejoin:miter;stroke-opacity:1;display:inline" />
    </g>
    <g
       transform="translate(70.048193,10.903614)"
       id="g2512">
      <path
         d="M -38.173192,9.5963856 C -38.921931,9.5963856 -39.548192,10.191398 -39.548192,10.940136 L -39.548192,12.690135 C -40.021594,12.849011 -40.480943,13.033541 -40.923192,13.252635 L -42.141942,12.033885 C -42.671381,11.504447 -43.518755,11.504447 -44.048192,12.033885 L -47.110692,15.065135 C -47.640131,15.594573 -47.640128,16.441948 -47.110692,16.971385 L -45.891942,18.190136 C -46.116269,18.640068 -46.292575,19.114068 -46.454442,19.596386 L -48.173192,19.596386 C -48.921931,19.596386 -49.548195,20.191398 -49.548192,20.940136 L -49.548192,25.252636 C -49.548193,26.001374 -48.921928,26.596388 -48.173192,26.596386 L -46.454442,26.596386 C -46.292575,27.078704 -46.116269,27.552704 -45.891942,28.002636 L -47.110692,29.221386 C -47.640131,29.750824 -47.640132,30.598198 -47.110692,31.127636 L -44.048192,34.158886 C -43.518755,34.688324 -42.671379,34.688322 -42.141942,34.158886 L -40.923192,32.940136 C -40.480943,33.15923 -40.021594,33.34376 -39.548192,33.502636 L -39.548192,35.252636 C -39.548193,36.001374 -38.921926,36.596388 -38.173192,36.596386 L -33.891942,36.596386 C -33.143203,36.596386 -32.548192,36.001372 -32.548192,35.252636 L -32.548192,33.502636 C -32.065874,33.340768 -31.591874,33.164463 -31.141942,32.940136 L -29.923193,34.158886 C -29.393754,34.688324 -28.546382,34.688324 -28.016943,34.158886 L -24.954443,31.127636 C -24.425004,30.598198 -24.425009,29.750822 -24.954443,29.221386 L -26.204443,27.971386 C -25.985349,27.529137 -25.800819,27.069788 -25.641943,26.596386 L -23.891943,26.596386 C -23.143204,26.596386 -22.548193,26.001372 -22.548193,25.252636 L -22.548193,20.940136 C -22.548192,20.191398 -23.143209,19.596386 -23.891943,19.596386 L -25.641943,19.596386 C -25.800819,19.122984 -25.985349,18.663635 -26.204443,18.221386 L -24.954443,16.971385 C -24.425004,16.441947 -24.425005,15.594573 -24.954443,15.065135 L -28.016943,12.033885 C -28.54638,11.504447 -29.393757,11.504447 -29.923193,12.033885 L -31.141942,13.252635 C -31.591874,13.028308 -32.065874,12.852003 -32.548192,12.690135 L -32.548192,10.940136 C -32.548191,10.191398 -33.143208,9.5963856 -33.891942,9.5963856 L -38.173192,9.5963856 z M -36.048192,19.596386 C -34.116192,19.596386 -32.548192,21.164386 -32.548192,23.096386 C -32.548192,25.028386 -34.116192,26.596386 -36.048192,26.596386 C -37.980193,26.596386 -39.548192,25.028386 -39.548192,23.096386 C -39.548193,21.164386 -37.980192,19.596386 -36.048192,19.596386 z"
         id="rect2576"
         style="fill:url(#linearGradient2517);fill-opacity:1;fill-rule:nonzero;stroke:url(#linearGradient2519);stroke-width:1;stroke-linecap:butt;stroke-linejoin:round;marker:none;marker-start:none;marker-mid:none;marker-end:none;stroke-miterlimit:4;stroke-dasharray:none;stroke-dashoffset:0;stroke-opacity:1;visibility:visible;display:block;overflow:visible;enable-background:accumulate" />
      <path
         d="M -36.048192,15.096385 C -40.459465,15.096385 -44.04819,18.685113 -44.04819,23.096386 C -44.04819,27.50766 -40.459465,31.096386 -36.048192,31.096386 C -31.636919,31.096386 -28.048193,27.50766 -28.048193,23.096386 C -28.048193,18.685113 -31.636919,15.096385 -36.048192,15.096385 z M -36.048192,18.788695 C -33.670348,18.788695 -31.740499,20.718541 -31.740499,23.096386 C -31.740499,25.474233 -33.670348,27.404079 -36.048192,27.404079 C -38.426038,27.404079 -40.355883,25.474233 -40.355883,23.096386 C -40.355883,20.718541 -38.426038,18.788695 -36.048192,18.788695 z"
         id="path3315"
         style="opacity:0.05;fill:#000000;fill-opacity:1;stroke:none;stroke-width:0.99956679;stroke-miterlimit:4;stroke-dasharray:none" />
      <path
         d="M -36.048192,14.717076 C -40.668545,14.717076 -44.427501,18.476034 -44.427501,23.096385 C -44.427501,27.716737 -40.668545,31.475695 -36.048192,31.475695 C -31.427839,31.475695 -27.668883,27.716737 -27.668883,23.096385 C -27.668883,18.476034 -31.427839,14.717076 -36.048192,14.717076 z"
         id="path28"
         style="fill:none;stroke:url(#linearGradient2521);stroke-width:1;stroke-miterlimit:4;stroke-dasharray:none" />
    </g>
  </g>
</svg>

<?xml version="1.0" encoding="UTF-8" standalone="no"?>
<!-- Created with Inkscape (http://www.inkscape.org/) -->
<svg id="svg2547" xmlns="http://www.w3.org/2000/svg" height="48" width="48" version="1.0" xmlns:xlink="http://www.w3.org/1999/xlink">
 <defs id="defs2549">
  <linearGradient id="linearGradient2815" y2="17.5" spreadMethod="reflect" gradientUnits="userSpaceOnUse" x2="3.0052" y1="17.5" x1="44.995">
   <stop id="stop3277" style="stop-color:#fff;stop-opacity:0" offset="0"/>
   <stop id="stop3283" style="stop-color:#fff" offset=".245"/>
   <stop id="stop3285" style="stop-color:#fff" offset=".77350"/>
   <stop id="stop3279" style="stop-color:#fff;stop-opacity:0" offset="1"/>
  </linearGradient>
  <linearGradient id="linearGradient2813" y2="8" gradientUnits="userSpaceOnUse" x2="26" y1="22" x1="26">
   <stop id="stop3829" style="stop-color:#fff" offset="0"/>
   <stop id="stop4295" style="stop-color:#fff" offset=".30213"/>
   <stop id="stop4293" style="stop-color:#fff;stop-opacity:.69020" offset=".34361"/>
   <stop id="stop3832" style="stop-color:#fff;stop-opacity:0" offset="1"/>
  </linearGradient>
  <linearGradient id="linearGradient2811" y2="45.934" gradientUnits="userSpaceOnUse" x2="43.007" gradientTransform="matrix(1.2822 0 0 1.1747 -6.0702 -5.3032)" y1="30.555" x1="23.452">
   <stop id="stop4561" style="stop-color:#fff;stop-opacity:0" offset="0"/>
   <stop id="stop4563" style="stop-color:#fff;stop-opacity:0" offset="1"/>
  </linearGradient>
  <linearGradient id="linearGradient2809" y2="45.042" gradientUnits="userSpaceOnUse" x2="15.464" y1="7.9757" x1="15.464">
   <stop id="stop3297" style="stop-color:#c9af8b" offset="0"/>
   <stop id="stop3299" style="stop-color:#ad8757" offset=".23942"/>
   <stop id="stop3301" style="stop-color:#c2a57f" offset=".27582"/>
   <stop id="stop3303" style="stop-color:#9d7d53" offset="1"/>
  </linearGradient>
  <linearGradient id="linearGradient2807" y2="37.277" gradientUnits="userSpaceOnUse" x2="24.997" gradientTransform="matrix(1.2822 0 0 1.5573 -6.0702 -15.291)" y1="15.378" x1="24.823">
   <stop id="stop3201" style="stop-color:#dac197" offset="0"/>
   <stop id="stop3203" style="stop-color:#c1a581" offset=".23942"/>
   <stop id="stop3205" style="stop-color:#dbc298" offset=".27582"/>
   <stop id="stop3207" style="stop-color:#a68b60" offset="1"/>
  </linearGradient>
  <radialGradient id="radialGradient2805" xlink:href="#linearGradient3681" gradientUnits="userSpaceOnUse" cy="41.5" cx="5" gradientTransform="matrix(.59382 0 0 1.5367 41.141 -103.94)" r="5"/>
  <linearGradient id="linearGradient2803" y2="35" gradientUnits="userSpaceOnUse" x2="17.554" gradientTransform="matrix(1.757 0 0 1.397 -17.394 -16.412)" y1="46" x1="17.554">
   <stop id="stop3705" style="stop-opacity:0" offset="0"/>
   <stop id="stop3711" offset=".5"/>
   <stop id="stop3707" style="stop-opacity:0" offset="1"/>
  </linearGradient>
  <linearGradient id="linearGradient3681">
   <stop id="stop3683" offset="0"/>
   <stop id="stop3685" style="stop-opacity:0" offset="1"/>
  </linearGradient>
  <radialGradient id="radialGradient2801" xlink:href="#linearGradient3681" gradientUnits="userSpaceOnUse" cy="41.5" cx="5" gradientTransform="matrix(.59382 0 0 1.5367 -6.6595 -103.94)" r="5"/>
  <linearGradient id="linearGradient2521" y2="20.895" gradientUnits="userSpaceOnUse" x2="84.639" gradientTransform="matrix(.20140 0 0 .20140 -48.938 10.408)" y1="105.1" x1="86.133">
   <stop id="stop5130" style="stop-color:#fff" offset="0"/>
   <stop id="stop5132" style="stop-color:#959595" offset="1"/>
  </linearGradient>
  <linearGradient id="linearGradient2519" y2="47.045" gradientUnits="userSpaceOnUse" x2="25.923" gradientTransform="translate(-67.048 -9.9036)" y1="19" x1="25.923">
   <stop id="stop3399" style="stop-color:#aaa" offset="0"/>
   <stop id="stop3401" style="stop-color:#8c8c8c" offset="1"/>
  </linearGradient>
  <linearGradient id="linearGradient2517" y2="47.012" gradientUnits="userSpaceOnUse" x2="32.036" gradientTransform="translate(-67.048 -9.9036)" y1="19" x1="32.036">
   <stop id="stop3311" style="stop-color:#f6f6f6" offset="0"/>
   <stop id="stop3313" style="stop-color:#d2d2d2" offset="1"/>
  </linearGradient>
 </defs>
 <g id="layer1">
  <g id="g2791" transform="translate(6.1179e-7 -1)">
   <g id="g3305" style="opacity:.4" transform="matrix(.99266 0 0 .97615 .27519 1.293)">
    <rect id="rect2484" style="opacity:1;fill:url(#radialGradient2801)" transform="scale(-1)" height="15.367" width="2.9602" y="-47.848" x="-3.6904"/>
    <rect id="rect2486" style="opacity:1;fill:url(#linearGradient2803)" height="15.367" width="40.412" y="32.482" x="3.6904"/>
    <rect id="rect3444" style="opacity:1;fill:url(#radialGradient2805)" transform="scale(1,-1)" height="15.367" width="2.9602" y="-47.848" x="44.11"/>
   </g>
   <path id="path2488" style="stroke:url(#linearGradient2809);stroke-linecap:round;stroke-width:.99420;display:block;fill:url(#linearGradient2807)" d="m9.0107 8.5h29.497c1.722 0 2.497-0.2866 2.992 1l3.002 8v25.674c0 1.553 0.103 1.316-1.619 1.316h-37.766c-1.7217 0-1.6187 0.237-1.6187-1.316v-25.674l3.0017-8c0.4808-1.2606 0.7887-1 2.5107-1z"/>
   <path id="path2490" style="opacity:.50549;stroke:url(#linearGradient2811);stroke-width:.74212;display:block;fill:none" d="m9.9482 9.5129h27.653c1.614 0 2.613 0.5561 3.29 2.0861l2.329 6.42v23.144c0 1.461-0.819 2.196-2.434 2.196h-33.733c-1.614 0-2.2725-0.808-2.2725-2.269v-23.071l2.2538-6.558c0.4508-1.185 1.2996-1.9481 2.9139-1.9481z"/>
   <path id="rect3326" style="opacity:.4;fill:url(#linearGradient2813)" d="m22 8h4v14h-1.181-1.21-0.973-0.636v-14z"/>
   <path id="path3273" style="opacity:.4;stroke:url(#linearGradient2815);stroke-linecap:square;stroke-width:1px;fill:none" d="m3.5052 17.5h40.99"/>
  </g>
  <g id="g2512" transform="translate(70.048 10.904)">
   <path id="rect2576" style="stroke-linejoin:round;stroke:url(#linearGradient2519);display:block;fill:url(#linearGradient2517)" d="m-38.173 9.5964c-0.749 0-1.375 0.5946-1.375 1.3436v1.75c-0.474 0.159-0.933 0.344-1.375 0.563l-1.219-1.219c-0.529-0.53-1.377-0.53-1.906 0l-3.063 3.031c-0.529 0.53-0.529 1.377 0 1.906l1.219 1.219c-0.224 0.45-0.401 0.924-0.562 1.406h-1.719c-0.749 0-1.375 0.595-1.375 1.344v4.313c0 0.748 0.626 1.343 1.375 1.343h1.719c0.161 0.483 0.338 0.957 0.562 1.407l-1.219 1.218c-0.529 0.53-0.529 1.377 0 1.907l3.063 3.031c0.529 0.529 1.377 0.529 1.906 0l1.219-1.219c0.442 0.219 0.901 0.404 1.375 0.563v1.75c0 0.748 0.626 1.343 1.375 1.343h4.281c0.749 0 1.344-0.595 1.344-1.343v-1.75c0.482-0.162 0.956-0.339 1.406-0.563l1.219 1.219c0.529 0.529 1.377 0.529 1.906 0l3.063-3.031c0.529-0.53 0.529-1.377 0-1.907l-1.25-1.25c0.219-0.442 0.403-0.901 0.562-1.375h1.75c0.749 0 1.344-0.595 1.344-1.343v-4.313c0-0.749-0.595-1.344-1.344-1.344h-1.75c-0.159-0.473-0.343-0.932-0.562-1.375l1.25-1.25c0.529-0.529 0.529-1.376 0-1.906l-3.063-3.031c-0.529-0.53-1.377-0.53-1.906 0l-1.219 1.219c-0.45-0.225-0.924-0.401-1.406-0.563v-1.75c0-0.749-0.595-1.3436-1.344-1.3436h-4.281zm2.125 9.9996c1.932 0 3.5 1.568 3.5 3.5s-1.568 3.5-3.5 3.5-3.5-1.568-3.5-3.5 1.568-3.5 3.5-3.5z"/>
   <path id="path3315" style="opacity:.05" d="m-36.048 15.096c-4.411 0-8 3.589-8 8 0 4.412 3.589 8 8 8s8-3.588 8-8c0-4.411-3.589-8-8-8zm0 3.693c2.378 0 4.308 1.93 4.308 4.307 0 2.378-1.93 4.308-4.308 4.308s-4.308-1.93-4.308-4.308c0-2.377 1.93-4.307 4.308-4.307z"/>
   <path id="path28" style="stroke:url(#linearGradient2521);fill:none" d="m-36.048 14.717c-4.621 0-8.38 3.759-8.38 8.379 0 4.621 3.759 8.38 8.38 8.38 4.62 0 8.379-3.759 8.379-8.38 0-4.62-3.759-8.379-8.379-8.379z"/>
  </g>
 </g>
</svg>
